icons/footer-links-2.svg

<svg width="30" height="30" viewBox="0 0 30 30" fill="none" xmlns="http://www.w3.org/2000/svg">
<path opacity="0.5" d="M12.489 3.003L13.218 3H16.782L17.512 3.003L18.426 3.013L18.859 3.02L19.277 3.031L19.68 3.045L20.068 3.061L20.442 3.082L20.802 3.107L21.147 3.13701L21.48 3.17001C23.22 3.36602 24.413 3.78603 25.313 4.68607C26.213 5.58611 26.633 6.77816 26.829 8.51923L26.863 8.85224L26.892 9.19826L26.917 9.55827L26.937 9.93129L26.962 10.5193L26.974 10.9293L26.987 11.5734L26.996 12.4884L27 13.4684L26.999 16.7816L26.996 17.5116L26.986 18.4256L26.979 18.8587L26.968 19.2767L26.954 19.6797L26.938 20.0677L26.917 20.4417L26.892 20.8017L26.862 21.1468L26.829 21.4798C26.633 23.2198 26.213 24.4129 25.313 25.3129C24.413 26.213 23.221 26.633 21.48 26.829L21.147 26.863L20.801 26.892L20.441 26.917L20.068 26.937L19.48 26.962L19.07 26.974L18.426 26.987L17.511 26.996L16.531 27L13.218 26.999L12.488 26.996L11.574 26.986L11.141 26.979L10.723 26.968L10.32 26.954L9.932 26.938L9.558 26.917L9.198 26.892L8.853 26.862L8.52 26.829C6.78 26.633 5.587 26.213 4.687 25.3129C3.787 24.4129 3.367 23.2208 3.171 21.4798L3.137 21.1468L3.108 20.8007L3.083 20.4407L3.063 20.0677L3.038 19.4797L3.026 19.0697L3.013 18.4256L3.004 17.5106L3 16.5306L3.001 13.2174L3.004 12.4874L3.014 11.5734L3.021 11.1403L3.032 10.7223L3.046 10.3193L3.062 9.93129L3.083 9.55727L3.108 9.19726L3.138 8.85224L3.171 8.51923C3.367 6.77916 3.787 5.58611 4.687 4.68607C5.587 3.78603 6.779 3.36602 8.52 3.17001L8.853 3.13601L9.199 3.107L9.559 3.082L9.932 3.062L10.52 3.037L10.93 3.025L11.574 3.012L12.489 3.003ZM9.79 10.2993H7.05C7.18 16.5396 10.3 20.2897 15.77 20.2897H16.08V16.7196C18.09 16.9196 19.61 18.3896 20.22 20.2897H23.06C22.28 17.4496 20.23 15.8795 18.95 15.2795C20.23 14.5395 22.03 12.7394 22.46 10.2993H19.88C19.32 12.2794 17.66 14.0795 16.08 14.2495V10.2993H13.5V17.2196C11.9 16.8196 9.88 14.8795 9.79 10.2993Z" fill="white"/>
<path fill-rule="evenodd" clip-rule="evenodd" d="M7.05005 10.2988H9.79005C9.88005 14.879 11.9 16.8191 13.5 17.2191V10.2988H16.08V14.249C17.66 14.079 19.32 12.2789 19.88 10.2988H22.46C22.03 12.7389 20.23 14.539 18.95 15.279C20.23 15.8791 22.28 17.4491 23.06 20.2892H20.22C19.61 18.3892 18.09 16.9191 16.08 16.7191V20.2892H15.77C10.3 20.2892 7.18005 16.5391 7.05005 10.2988Z" fill="white"/>
</svg>

<svg xmlns="http://www.w3.org/2000/svg" width="30" height="30" fill="none"><path fill="#fff" d="M12.489 3.003 13.218 3h3.564l.73.003.914.01.433.007.418.011.403.014.388.016.374.021.36.025.345.03.333.033c1.74.196 2.933.616 3.833 1.516s1.32 2.092 1.516 3.833l.034.333.029.346.025.36.02.373.025.588.012.41.013.644.009.915.004.98-.001 3.314-.003.73-.01.914-.007.433-.011.418-.014.403-.016.388-.021.374-.025.36-.03.345-.033.333c-.196 1.74-.616 2.933-1.516 3.833s-2.092 1.32-3.833 1.516l-.333.034-.346.029-.36.025-.373.02-.588.025-.41.012-.644.013-.915.009-.98.004-3.313-.001-.73-.003-.914-.01-.433-.007-.418-.011-.403-.014-.388-.016-.374-.021-.36-.025-.345-.03-.333-.033c-1.74-.196-2.933-.616-3.833-1.516s-1.32-2.092-1.516-3.833l-.034-.333-.029-.346-.025-.36-.02-.373-.025-.588-.012-.41-.013-.644-.009-.915L3 16.53l.001-3.314.003-.73.01-.914.007-.433.011-.418.014-.403.016-.388.021-.374.025-.36.03-.345.033-.333c.196-1.74.616-2.933 1.516-3.833S6.779 3.366 8.52 3.17l.333-.034.346-.029.36-.025.373-.02.588-.025.41-.012.644-.013zM9.79 10.299H7.05c.13 6.24 3.25 9.99 8.72 9.99h.31v-3.57c2.01.2 3.53 1.67 4.14 3.57h2.84c-.78-2.84-2.83-4.41-4.11-5.01 1.28-.74 3.08-2.54 3.51-4.98h-2.58c-.56 1.98-2.22 3.78-3.8 3.95V10.3H13.5v6.92c-1.6-.4-3.62-2.34-3.71-6.92" opacity=".5"/><path fill="#fff" fill-rule="evenodd" d="M7.05 10.299h2.74c.09 4.58 2.11 6.52 3.71 6.92V10.3h2.58v3.95c1.58-.17 3.24-1.97 3.8-3.95h2.58c-.43 2.44-2.23 4.24-3.51 4.98 1.28.6 3.33 2.17 4.11 5.01h-2.84c-.61-1.9-2.13-3.37-4.14-3.57v3.57h-.31c-5.47 0-8.59-3.75-8.72-9.99" clip-rule="evenodd"/></svg>
